packages/tokens/icons/coveoGo/size32Px.svg

<svg viewBox="0 0 32 32" fill="none" xmlns="http://www.w3.org/2000/svg" width="1em" height="1em"><path d="M25.9373 6.03926C23.5274 3.64331 20.4406 2.29727 17.2726 2.00114C16.8935 1.97422 16.6769 2.43187 16.9477 2.70108L22.0111 7.73528C22.0382 7.7622 22.0111 7.81605 21.9569 7.78912C20.4948 6.73921 18.8431 6.14695 17.1372 5.98541C16.8664 5.95849 16.7311 6.28154 16.9206 6.47L20.3865 9.91585C20.4135 9.94278 20.3865 9.99662 20.3323 9.9697C19.3846 9.3236 18.3015 8.9467 17.1914 8.83904C17.0018 8.81212 16.8935 9.0544 17.0289 9.16209L22.9046 15.0039C23.04 15.1385 23.2566 15.0308 23.2296 14.8424C23.1212 13.7386 22.7422 12.6618 22.0923 11.7196C22.0652 11.6926 22.1194 11.6388 22.1465 11.6657L25.4769 14.977C25.6665 15.1654 25.9914 15.0039 25.9643 14.7616C25.8289 13.0925 25.2333 11.4234 24.1772 9.99662C24.1502 9.9697 24.2043 9.91585 24.2314 9.94278L29.2948 14.977C29.5657 15.2462 30.0258 15.0308 29.9989 14.627C29.7008 11.5042 28.3471 8.43522 25.9373 6.03926ZM6.06271 6.03926C8.47256 3.64331 11.5593 2.29727 14.7273 2.00114C15.1064 1.97422 15.323 2.43187 15.0523 2.70108L9.98887 7.73528C9.96178 7.7622 9.98887 7.81605 10.043 7.78912C11.5052 6.73921 13.1569 6.14695 14.8627 5.98541C15.1335 5.95849 15.2689 6.28154 15.0793 6.47L11.6135 9.91585C11.5864 9.94278 11.6135 9.99662 11.6677 9.9697C12.6153 9.3236 13.6984 8.9467 14.8086 8.83904C14.9981 8.81212 15.1064 9.0544 14.9711 9.16209L9.09532 15.0308C8.95995 15.1654 8.74333 15.0577 8.77041 14.8693C8.8787 13.7655 9.2578 12.6887 9.90764 11.7465C9.93473 11.7196 9.88056 11.6657 9.85347 11.6926L6.52301 15.0039C6.33348 15.1923 6.00854 15.0308 6.03563 14.7885C6.19808 13.0925 6.79378 11.4234 7.84978 9.99662C7.87687 9.9697 7.8227 9.91585 7.79564 9.94278L2.70515 14.977C2.43438 15.2462 1.97407 15.0308 2.00114 14.627C2.29899 11.5042 3.65284 8.43522 6.06271 6.03926ZM6.06271 25.9607C8.47256 28.3566 11.5593 29.7027 14.7273 29.9989C15.1064 30.0258 15.323 29.5681 15.0523 29.2989L9.98887 24.2647C9.96178 24.2377 9.98887 24.1839 10.043 24.2108C11.5052 25.2607 13.1569 25.853 14.8627 26.0145C15.1335 26.0414 15.2689 25.7184 15.0793 25.5299L11.6135 22.0841C11.5864 22.0572 11.6135 22.0033 11.6677 22.0302C12.6153 22.6763 13.6984 23.0532 14.8086 23.1609C14.9981 23.1878 15.1064 22.9455 14.9711 22.8379L9.09532 16.9691C8.95995 16.8345 8.74333 16.9422 8.77041 17.1307C8.8787 18.2344 9.2578 19.3112 9.90764 20.2535C9.93473 20.2804 9.88056 20.3342 9.85347 20.3073L6.52301 16.996C6.33348 16.8076 6.00854 16.9691 6.03563 17.2114C6.19808 18.9074 6.79378 20.5765 7.84978 22.0033C7.87687 22.0302 7.8227 22.0841 7.79564 22.0572L2.70515 17.023C2.43438 16.7538 1.97407 16.9691 2.00114 17.3729C2.29899 20.4957 3.65284 23.5647 6.06271 25.9607ZM25.9373 25.9607C23.5274 28.3566 20.4406 29.7027 17.2726 29.9989C16.8935 30.0258 16.6769 29.5681 16.9477 29.2989L22.0111 24.2647C22.0382 24.2377 22.0111 24.1839 21.9569 24.2108C20.4948 25.2607 18.8431 25.853 17.1372 26.0145C16.8664 26.0414 16.7311 25.7184 16.9206 25.5299L20.3865 22.0841C20.4135 22.0571 20.3865 22.0033 20.3323 22.0302C19.3846 22.6763 18.3015 23.0532 17.1914 23.1609C17.0018 23.1878 16.8935 22.9455 17.0289 22.8379L22.9046 16.996C23.04 16.8614 23.2566 16.9691 23.2296 17.1576C23.1212 18.2613 22.7422 19.3382 22.0923 20.2804C22.0652 20.3073 22.1194 20.3611 22.1465 20.3342L25.4769 17.023C25.6665 16.8345 25.9914 16.996 25.9643 17.2383C25.8289 18.9074 25.2333 20.5765 24.1772 22.0302C24.1502 22.0571 24.2043 22.111 24.2314 22.0841L29.2948 17.0499C29.5657 16.7807 30.0258 16.996 29.9989 17.3999C29.7008 20.4957 28.3471 23.5647 25.9373 25.9607Z" fill="currentColor"/><path d="M13.4295 12.75C13.7645 12.75 14.0545 12.7875 14.2995 12.8625C14.5445 12.9375 14.752 13.0275 14.922 13.1325C15.092 13.2325 15.227 13.3325 15.327 13.4325C15.427 13.5325 15.4995 13.605 15.5445 13.65L14.892 14.2275C14.827 14.1525 14.7495 14.0775 14.6595 14.0025C14.5695 13.9225 14.4645 13.8525 14.3445 13.7925C14.2245 13.7275 14.0895 13.675 13.9395 13.635C13.7895 13.595 13.6195 13.575 13.4295 13.575C13.1945 13.575 12.9745 13.6175 12.7695 13.7025C12.5695 13.7825 12.3945 13.9025 12.2445 14.0625C12.0945 14.2175 11.977 14.41 11.892 14.64C11.807 14.865 11.7645 15.1225 11.7645 15.4125C11.7645 15.7025 11.807 15.9625 11.892 16.1925C11.982 16.4175 12.102 16.61 12.252 16.77C12.407 16.925 12.587 17.045 12.792 17.13C13.002 17.21 13.227 17.25 13.467 17.25C13.707 17.25 13.907 17.23 14.067 17.19C14.227 17.15 14.357 17.105 14.457 17.055C14.572 17 14.6645 16.935 14.7345 16.86V15.9075H13.4895V15.15H15.6795V17.2275C15.6345 17.2725 15.557 17.3425 15.447 17.4375C15.342 17.5325 15.197 17.63 15.012 17.73C14.832 17.825 14.612 17.91 14.352 17.985C14.092 18.055 13.7895 18.09 13.4445 18.09C13.0795 18.09 12.732 18.0325 12.402 17.9175C12.077 17.8025 11.792 17.6325 11.547 17.4075C11.307 17.1825 11.1145 16.905 10.9695 16.575C10.8295 16.24 10.7595 15.855 10.7595 15.42C10.7595 15.005 10.8295 14.6325 10.9695 14.3025C11.1145 13.9725 11.307 13.6925 11.547 13.4625C11.792 13.2325 12.0745 13.0575 12.3945 12.9375C12.7195 12.8125 13.0645 12.75 13.4295 12.75ZM16.3254 16.2C16.3254 15.915 16.3754 15.655 16.4754 15.42C16.5754 15.185 16.7129 14.985 16.8879 14.82C17.0679 14.655 17.2779 14.5275 17.5179 14.4375C17.7579 14.3475 18.0179 14.3025 18.2979 14.3025C18.5779 14.3025 18.8354 14.3475 19.0704 14.4375C19.3104 14.5275 19.5179 14.655 19.6929 14.82C19.8729 14.985 20.0129 15.185 20.1129 15.42C20.2129 15.655 20.2629 15.915 20.2629 16.2C20.2629 16.485 20.2129 16.745 20.1129 16.98C20.0129 17.21 19.8729 17.4075 19.6929 17.5725C19.5179 17.7375 19.3104 17.865 19.0704 17.955C18.8354 18.04 18.5779 18.0825 18.2979 18.0825C18.0179 18.0825 17.7579 18.04 17.5179 17.955C17.2779 17.865 17.0679 17.7375 16.8879 17.5725C16.7129 17.4075 16.5754 17.21 16.4754 16.98C16.3754 16.745 16.3254 16.485 16.3254 16.2ZM18.2979 17.2875C18.6079 17.2875 18.8479 17.1825 19.0179 16.9725C19.1879 16.7575 19.2729 16.4925 19.2729 16.1775C19.2729 15.8625 19.1879 15.6 19.0179 15.39C18.8479 15.18 18.6079 15.075 18.2979 15.075C17.9829 15.075 17.7404 15.18 17.5704 15.39C17.4054 15.6 17.3229 15.8625 17.3229 16.1775C17.3229 16.4925 17.4054 16.7575 17.5704 16.9725C17.7404 17.1825 17.9829 17.2875 18.2979 17.2875Z" fill="currentColor"/></svg>

<svg xmlns="http://www.w3.org/2000/svg" fill="none" viewBox="0 0 32 32" width="1em" height="1em"><path fill="currentColor" d="M25.937 6.04A14.113 14.113 0 0 0 17.273 2c-.38-.027-.596.43-.325.7l5.063 5.034c.027.027 0 .081-.054.054a9.792 9.792 0 0 0-4.82-1.804c-.27-.027-.406.297-.216.485l3.466 3.446c.026.027 0 .08-.055.054a6.719 6.719 0 0 0-3.14-1.131c-.19-.027-.299.215-.163.323l5.876 5.842a.19.19 0 0 0 .325-.162 6.632 6.632 0 0 0-1.138-3.122c-.027-.027.027-.081.055-.054l3.33 3.311c.19.188.514.027.487-.215a9.29 9.29 0 0 0-1.787-4.765c-.027-.027.027-.081.054-.054l5.064 5.034c.27.27.73.054.704-.35a13.964 13.964 0 0 0-4.062-8.588Zm-19.874 0A14.113 14.113 0 0 1 14.727 2c.38-.027.596.43.325.7L9.99 7.735c-.027.027 0 .081.054.054a9.793 9.793 0 0 1 4.82-1.804c.27-.027.406.297.216.485l-3.466 3.446c-.027.027 0 .08.055.054a6.718 6.718 0 0 1 3.14-1.131c.19-.027.298.215.163.323l-5.876 5.869a.19.19 0 0 1-.325-.162 6.632 6.632 0 0 1 1.138-3.123c.027-.026-.027-.08-.055-.053l-3.33 3.31c-.19.19-.514.028-.487-.214A9.574 9.574 0 0 1 7.85 9.997c.027-.027-.027-.081-.054-.054l-5.09 5.034c-.272.27-.732.054-.705-.35a13.962 13.962 0 0 1 4.062-8.588Zm0 19.92A14.114 14.114 0 0 0 14.727 30c.38.027.596-.43.325-.7L9.99 24.265c-.027-.027 0-.081.054-.054a9.793 9.793 0 0 0 4.82 1.804c.27.026.406-.297.216-.485l-3.466-3.446c-.027-.027 0-.08.055-.054a6.719 6.719 0 0 0 3.14 1.13c.19.028.298-.215.163-.322l-5.876-5.869a.19.19 0 0 0-.325.162 6.632 6.632 0 0 0 1.138 3.122c.027.027-.027.081-.055.054l-3.33-3.311c-.19-.188-.514-.027-.487.215a9.574 9.574 0 0 0 1.814 4.792c.027.027-.027.081-.054.054l-5.09-5.034c-.272-.27-.732-.054-.705.35a13.962 13.962 0 0 0 4.062 8.588Zm19.874 0A14.114 14.114 0 0 1 17.273 30c-.38.027-.596-.43-.325-.7l5.063-5.034c.027-.027 0-.081-.054-.054a9.792 9.792 0 0 1-4.82 1.804c-.27.026-.406-.297-.216-.485l3.466-3.446c.026-.027 0-.08-.055-.054a6.72 6.72 0 0 1-3.14 1.13c-.19.028-.299-.215-.163-.322l5.876-5.842a.19.19 0 0 1 .325.162 6.633 6.633 0 0 1-1.138 3.122c-.027.027.027.081.055.054l3.33-3.311c.19-.189.514-.027.487.215a9.469 9.469 0 0 1-1.787 4.792c-.027.027.027.081.054.054l5.064-5.034c.27-.27.73-.054.704.35a13.963 13.963 0 0 1-4.062 8.56ZM13.43 12.75c.335 0 .625.037.87.113.244.075.452.165.622.27.17.1.305.2.405.3l.217.217-.652.577a2.007 2.007 0 0 0-.547-.434 1.846 1.846 0 0 0-.915-.218c-.236 0-.455.043-.66.128-.2.08-.375.2-.525.36a1.63 1.63 0 0 0-.353.577 2.176 2.176 0 0 0-.127.772c0 .29.042.55.127.78.09.226.21.418.36.578.155.155.335.275.54.36.21.08.435.12.675.12.24 0 .44-.02.6-.06.16-.04.29-.085.39-.135a.913.913 0 0 0 .277-.195v-.952H13.49v-.758h2.19v2.077a4.87 4.87 0 0 1-.232.21c-.105.095-.25.193-.435.293-.18.095-.4.18-.66.255a3.51 3.51 0 0 1-.908.105c-.365 0-.712-.058-1.042-.172a2.464 2.464 0 0 1-.855-.51 2.506 2.506 0 0 1-.578-.833c-.14-.335-.21-.72-.21-1.155 0-.415.07-.787.21-1.117.146-.33.338-.61.578-.84.245-.23.527-.405.848-.525.325-.126.67-.188 1.035-.188Zm2.895 3.45c0-.285.05-.545.15-.78.1-.235.238-.435.413-.6.18-.165.39-.293.63-.383.24-.09.5-.134.78-.134s.537.044.772.134c.24.09.448.218.623.383.18.165.32.365.42.6.1.235.15.495.15.78 0 .285-.05.545-.15.78-.1.23-.24.427-.42.593a1.835 1.835 0 0 1-.623.382 2.256 2.256 0 0 1-.772.128c-.28 0-.54-.043-.78-.128-.24-.09-.45-.217-.63-.382a1.779 1.779 0 0 1-.413-.593c-.1-.235-.15-.495-.15-.78Zm1.973 1.088c.31 0 .55-.105.72-.316.17-.215.255-.48.255-.795 0-.314-.085-.577-.255-.787-.17-.21-.41-.315-.72-.315-.315 0-.558.105-.728.315-.165.21-.247.473-.247.787 0 .316.082.58.247.796.17.21.413.315.728.315Z"/></svg>
